scalable/actions/document-properties.svg

<svg xmlns="http://www.w3.org/2000/svg" width="24" height="24" version="1">
  <path fill="#333" d="M10.169922.60546875c-.230635.00304154-.3726833.23165991-.3535158.64843745l.0722657 1.5820313c.03067.6668442-.4775289 1.0998846-1.1308594.9628906L5.25 3.0625c-.6533307-.1370748-.89182.2116248-.53125.7734375l.8574219 1.3359375c.36057.561813.1365112 1.190964-.4980469 1.3984375l-3.40625 1.1132813c-.6345579.2073925-.6672657.6289493-.0742188.9355468l1.4082032.7285156c.5929661.3065976.7149032.9636978.2695312 1.4609378L.88476562 13.476562c-.44545283.49724-.26458124.878244.40234378.847657l1.5839844-.072266c.6668441-.03059 1.1001273.479482.9628906 1.132813l-.734375 3.503906c-.1371557.653331.2095098.891577.7714844.53125l1.3378906-.857422c.5619745-.360332 1.1928366-.13643 1.4003906.498047l1.1132812 3.404297c.207635.634477.6286254.667102.9355469.074218l.7285157-1.408203c.3069215-.592887.9654882-.712788 1.4628902-.267578l2.667969 2.388672c.497402.445211.880197.264501.84961-.402344l-.074219-1.583984c-.03059-.666845.479482-1.099966 1.132812-.962891l3.50586.736328c.653331.137075.893773-.211624.533203-.773437l-.857422-1.335937c-.36057-.561814-.13643-1.191045.498047-1.398438l3.404297-1.113281c.634558-.207392.669214-.628949.076172-.935547l-1.410157-.728516c-.592966-.306598-.71295-.963696-.267578-1.460937L23.296875 10.625c.445453-.49724.2645-.8782433-.402344-.8476562l-1.583984.0722656c-.666844.030585-1.100127-.479482-.962891-1.1328125l.736328-3.5039063c.137237-.6533306-.211381-.8915772-.773437-.53125l-1.337891.8574219c-.561975.3602465-1.190802.1364301-1.398437-.4980469l-1.113281-3.4023437c-.207635-.634477-.628625-.6690571-.935547-.0761719l-.728516 1.4082031c-.306921.5928852-.965488.7127883-1.462891.2675781L10.666016.84960938c-.186526-.16695378-.357713-.24596555-.496094-.24414063zm1.80664 10.14257825c.751728 0 1.359376.610411 1.359376 1.361328 0 .751646-.607648 1.359375-1.359376 1.359375-.751564 0-1.361328-.607648-1.361328-1.359375 0-.750836.609764-1.361328 1.361328-1.361328z"/>
</svg>

<?xml version="1.0" encoding="UTF-8" standalone="no"?>
<!-- Created with Inkscape (http://www.inkscape.org/) -->

<svg
   xmlns:dc="http://purl.org/dc/elements/1.1/"
   xmlns:cc="http://creativecommons.org/ns#"
   xmlns:rdf="http://www.w3.org/1999/02/22-rdf-syntax-ns#"
   xmlns:svg="http://www.w3.org/2000/svg"
   xmlns="http://www.w3.org/2000/svg"
   xmlns:sodipodi="http://sodipodi.sourceforge.net/DTD/sodipodi-0.dtd"
   xmlns:inkscape="http://www.inkscape.org/namespaces/inkscape"
   id="svg2527"
   width="24"
   height="24"
   version="1.0"
   sodipodi:docname="document-properties.svg"
   inkscape:version="0.92.3 (2405546, 2018-03-11)">
  <metadata
     id="metadata23">
    <rdf:RDF>
      <cc:Work
         rdf:about="">
        <dc:format>image/svg+xml</dc:format>
        <dc:type
           rdf:resource="http://purl.org/dc/dcmitype/StillImage" />
        <dc:title></dc:title>
      </cc:Work>
    </rdf:RDF>
  </metadata>
  <sodipodi:namedview
     pagecolor="#ffffff"
     bordercolor="#666666"
     borderopacity="1"
     objecttolerance="10"
     gridtolerance="10"
     guidetolerance="10"
     inkscape:pageopacity="0"
     inkscape:pageshadow="2"
     inkscape:window-width="1366"
     inkscape:window-height="717"
     id="namedview21"
     showgrid="false"
     inkscape:zoom="10.3125"
     inkscape:cx="-17.406061"
     inkscape:cy="12"
     inkscape:window-x="0"
     inkscape:window-y="25"
     inkscape:window-maximized="1"
     inkscape:current-layer="svg2527"
     showguides="true"
     inkscape:guide-bbox="true" />
  <defs
     id="defs2529">
    <radialGradient
       id="radialGradient2436"
       cx="62.625"
       cy="4.625"
       r="10.625"
       gradientTransform="matrix(2.1647,0,0,0.75294,-111.56,36.518)"
       gradientUnits="userSpaceOnUse">
      <stop
         id="stop8840"
         offset="0" />
      <stop
         id="stop8842"
         style="stop-opacity:0"
         offset="1" />
    </radialGradient>
    <linearGradient
       id="linearGradient2517"
       x1="37.201"
       x2="37.201"
       y1="1"
       y2="45"
       gradientUnits="userSpaceOnUse">
      <stop
         id="stop3399"
         style="stop-color:#aaa"
         offset="0" />
      <stop
         id="stop3401"
         style="stop-color:#8c8c8c"
         offset="1" />
    </linearGradient>
    <linearGradient
       id="linearGradient2515"
       x1="20.759001"
       x2="20.759001"
       y1="1"
       y2="45.016998"
       gradientUnits="userSpaceOnUse">
      <stop
         id="stop3311"
         style="stop-color:#f6f6f6"
         offset="0" />
      <stop
         id="stop3313"
         style="stop-color:#d2d2d2"
         offset="1" />
    </linearGradient>
    <linearGradient
       id="linearGradient2512"
       x1="86.133003"
       x2="84.639"
       y1="105.1"
       y2="20.895"
       gradientTransform="matrix(0.32448,0,0,0.32448,3.2333,2.5577)"
       gradientUnits="userSpaceOnUse">
      <stop
         id="stop5130"
         style="stop-color:#e5e5e5"
         offset="0" />
      <stop
         id="stop5132"
         style="stop-color:#ababab"
         offset="1" />
    </linearGradient>
  </defs>
  <path
     style="fill:#333333;stroke-width:0.08091787"
     d="M 10.169922 0.60546875 C 9.939287 0.60851029 9.7972387 0.83712866 9.8164062 1.2539062 L 9.8886719 2.8359375 C 9.9193419 3.5027817 9.411143 3.9358221 8.7578125 3.7988281 L 5.25 3.0625 C 4.5966693 2.9254252 4.35818 3.2741248 4.71875 3.8359375 L 5.5761719 5.171875 C 5.9367419 5.733688 5.7126831 6.362839 5.078125 6.5703125 L 1.671875 7.6835938 C 1.0373171 7.8909863 1.0046093 8.3125431 1.5976562 8.6191406 L 3.0058594 9.3476562 C 3.5988255 9.6542538 3.7207626 10.311354 3.2753906 10.808594 L 0.88476562 13.476562 C 0.43931279 13.973802 0.62018438 14.354806 1.2871094 14.324219 L 2.8710938 14.251953 C 3.5379379 14.221363 3.9712211 14.731435 3.8339844 15.384766 L 3.0996094 18.888672 C 2.9624537 19.542003 3.3091192 19.780249 3.8710938 19.419922 L 5.2089844 18.5625 C 5.7709589 18.202168 6.401821 18.42607 6.609375 19.060547 L 7.7226562 22.464844 C 7.9302912 23.099321 8.3512816 23.131946 8.6582031 22.539062 L 9.3867188 21.130859 C 9.6936403 20.537972 10.352207 20.418071 10.849609 20.863281 L 13.517578 23.251953 C 14.01498 23.697164 14.397775 23.516454 14.367188 22.849609 L 14.292969 21.265625 C 14.262379 20.59878 14.772451 20.165659 15.425781 20.302734 L 18.931641 21.039062 C 19.584972 21.176137 19.825414 20.827438 19.464844 20.265625 L 18.607422 18.929688 C 18.246852 18.367874 18.470992 17.738643 19.105469 17.53125 L 22.509766 16.417969 C 23.144324 16.210577 23.17898 15.78902 22.585938 15.482422 L 21.175781 14.753906 C 20.582815 14.447308 20.462831 13.79021 20.908203 13.292969 L 23.296875 10.625 C 23.742328 10.12776 23.561375 9.7467567 22.894531 9.7773438 L 21.310547 9.8496094 C 20.643703 9.8801944 20.21042 9.3701274 20.347656 8.7167969 L 21.083984 5.2128906 C 21.221221 4.55956 20.872603 4.3213134 20.310547 4.6816406 L 18.972656 5.5390625 C 18.410681 5.899309 17.781854 5.6754926 17.574219 5.0410156 L 16.460938 1.6386719 C 16.253303 1.0041949 15.832313 0.9696148 15.525391 1.5625 L 14.796875 2.9707031 C 14.489954 3.5635883 13.831387 3.6834914 13.333984 3.2382812 L 10.666016 0.84960938 C 10.47949 0.6826556 10.308303 0.60364383 10.169922 0.60546875 z M 11.976562 10.748047 C 12.72829 10.748047 13.335938 11.358458 13.335938 12.109375 C 13.335938 12.861021 12.72829 13.46875 11.976562 13.46875 C 11.224998 13.46875 10.615234 12.861102 10.615234 12.109375 C 10.615234 11.358539 11.224998 10.748047 11.976562 10.748047 z "
     id="path837" />
</svg>
